assets/glimmer-ts-bold-light.svg

<svg xmlns="http://www.w3.org/2000/svg" fill="none" viewBox="0 0 32 32"><path fill="#007DF6" fill-rule="evenodd" d="M7.18854 17.2146c.32052.3092.74997.482 1.19685.4814.23054.0003.4586-.0456.6709-.1348.21231-.0893.40431-.2201.56454-.3848L10 16.7878V15c0-1.6569 1.3431-3 3-3h1.6712l6.5597-6.72345c.1583-.16086.2831-.35119.3671-.56006.0841-.20887.1257-.43217.1226-.65708-.0031-.2249-.0508-.44699-.1406-.6535-.0897-.20652-.2197-.3934-.3823-.54992-.1627-.15651-.3549-.27958-.5656-.36214-.2107-.08256-.4357-.12298-.6622-.11895-.2264.00404-.4498.05245-.6574.14247-.2076.09001-.3952.21985-.5521.38206L7.15013 14.7993c-.31741.3254-.49169.7626-.48449 1.2156.0072.4529.1953.8845.5229 1.1997ZM22.6836 12h-4.7749l5.9869-6.13642c.3186-.3143.7487-.49191 1.1979-.49468.4491-.00277.8814.16953 1.2039.47987.3226.31035.5097.73397.5211 1.17984.0115.44587-.1537.8784-.4599 1.20465L22.6836 12Zm7.296 0h-4.2383l1.3033-1.3358c.319-.3186.7515-.4997 1.2038-.5039.4524-.0042.8883.1688 1.2131.4814.3249.3127.5127.7398.5228 1.189.0012.0567-.0004.1132-.0047.1693ZM10 20.0701v4.9096l-1.55604 1.595c-.16022.1646-.3522.2954-.56447.3846-.21227.0892-.44047.135-.67097.1347-.44682.0006-.87621-.1721-1.19666-.4814-.16225-.156-.29196-.3423-.38171-.5481-.08975-.2059-.13778-.4273-.14135-.6516-.00356-.2243.0374-.4471.12056-.6556.08316-.2086.20688-.3989.36409-.5599L10 20.0701Zm-7.22994-6.2276c.28166.1853.61204.2842.9499.2842.23052.0002.45872-.0456.67099-.1349.21227-.0892.40424-.2201.56446-.3847l4.37255-4.48165c.31256-.32629.48274-.76196.4735-1.21221-.00924-.45026-.19714-.87868-.52283-1.19206-.32569-.31337-.76281-.48636-1.21627-.48131-.45346.00505-.88657.18772-1.2051.50827L2.48471 11.23c-.2351.241-.39353.5454-.45552.8752-.06198.3299-.02477.6705.10698.9795.13176.3089.35222.5725.63389.7578Zm2.84534 7.2861c.08536-.2093.12808-.4334.12568-.6592-.00479-.4499-.18812-.8798-.51018-1.1962-.32206-.3165-.75683-.494-1.2099-.494s-.88785.1775-1.20991.494c-.32205.3164-.50538.7463-.51017 1.1962-.00241.2258.04031.4499.12568.6592.08536.2094.21168.3998.37164.5604.15996.1605.3504.288.56028.375.20988.0869.43505.1317.66248.1317.22742 0 .45259-.0448.66248-.1317.20988-.087.40031-.2145.56027-.375.15997-.1606.28628-.351.37165-.5604Zm8.1647-16.76649c.0864-.20723.1309-.42934.1309-.65365 0-.33788-.1008-.66818-.2898-.94913-.189-.28096-.4577-.49994-.772-.62926-.3143-.12932-.6602-.16316-.9939-.09725-.3337.0659-.6402.2286-.8808.46752-.2406.23892-.4044.54332-.4708.87471-.0664.33139-.0323.67488.0979.98703.1302.31216.3508.57895.6337.76664.2829.18769.6155.28786.9557.28782.2259 0 .4495-.04418.6582-.13002s.3983-.21166.558-.37027c.1597-.15861.2864-.3469.3729-.55414Z" clip-rule="evenodd"/><path fill="#1E1E1E" d="M15.5166 26.7943v-9.6348H12v-1.9617h9.4179v1.9617h-3.5084v9.6348h-2.3929ZM22.3638 23.0211l2.3282-.2215c.1401.7647.4231 1.3263.8488 1.6849.4312.3586 1.0105.5379 1.7381.5379.7707 0 1.35-.1582 1.7381-.4746.3934-.3217.5901-.6961.5901-1.1233 0-.2742-.0835-.5062-.2506-.6961-.1617-.1951-.4473-.3639-.8569-.5063-.2803-.0949-.9189-.2636-1.9159-.5062-1.2827-.3112-2.1827-.6935-2.7001-1.147-.7276-.6381-1.0914-1.416-1.0914-2.3336 0-.5906.1698-1.1417.5093-1.6532.345-.5168.8381-.9097 1.4794-1.1787.6467-.2689 1.4255-.4034 2.3363-.4034 1.4875 0 2.6058.3191 3.3549.9572.7545.6381 1.1506 1.4897 1.1884 2.555l-2.3929.1028c-.1024-.5959-.3234-1.023-.6629-1.2814-.3342-.2637-.8381-.3956-1.5117-.3956-.6953 0-1.2396.1398-1.633.4193-.2533.1793-.38.4192-.38.7198 0 .2743.1186.5089.3557.704.3018.2479 1.0348.5063 2.1989.7753 1.1641.2689 2.0237.5484 2.5788.8385.5605.2847.9971.6776 1.3096 1.1786.318.4957.477 1.1101.477 1.8431 0 .6645-.1886 1.2868-.5659 1.8669-.3772.58-.9108 1.0125-1.6006 1.2973-.6899.2794-1.5495.4192-2.5789.4192-1.4982 0-2.6488-.3375-3.4519-1.0125-.803-.6803-1.2826-1.6691-1.4389-2.9664Z"/></svg>

<svg width="32" height="32" viewBox="0 0 32 32" fill="none" xmlns="http://www.w3.org/2000/svg">
<path fill-rule="evenodd" clip-rule="evenodd" d="M7.18854 17.2146C7.50906 17.5238 7.93851 17.6966 8.38539 17.696C8.61593 17.6963 8.84399 17.6504 9.05629 17.5612C9.2686 17.4719 9.4606 17.3411 9.62083 17.1764L10 16.7878V15C10 13.3431 11.3431 12 13 12H14.6712L21.2309 5.27655C21.3892 5.11569 21.514 4.92536 21.598 4.71649C21.6821 4.50762 21.7237 4.28432 21.7206 4.05941C21.7175 3.83451 21.6698 3.61242 21.58 3.40591C21.4903 3.19939 21.3603 3.01251 21.1977 2.85599C21.035 2.69948 20.8428 2.57641 20.6321 2.49385C20.4214 2.41129 20.1964 2.37087 19.9699 2.3749C19.7435 2.37894 19.5201 2.42735 19.3125 2.51737C19.1049 2.60738 18.9173 2.73722 18.7604 2.89943L7.15013 14.7993C6.83272 15.1247 6.65844 15.5619 6.66564 16.0149C6.67284 16.4678 6.86094 16.8994 7.18854 17.2146ZM22.6836 12H17.9087L23.8956 5.86358C24.2142 5.54928 24.6443 5.37167 25.0935 5.3689C25.5426 5.36613 25.9749 5.53843 26.2974 5.84877C26.62 6.15912 26.8071 6.58274 26.8185 7.02861C26.83 7.47448 26.6648 7.90701 26.3586 8.23326L22.6836 12ZM29.9796 12H25.7413L27.0446 10.6642C27.3636 10.3456 27.7961 10.1645 28.2484 10.1603C28.7008 10.1561 29.1367 10.3291 29.4615 10.6417C29.7864 10.9544 29.9742 11.3815 29.9843 11.8307C29.9855 11.8874 29.9839 11.9439 29.9796 12ZM10 20.0701V24.9797L8.44396 26.5747C8.28374 26.7393 8.09176 26.8701 7.87949 26.9593C7.66722 27.0485 7.43902 27.0943 7.20852 27.094C6.7617 27.0946 6.33231 26.9219 6.01186 26.6126C5.84961 26.4566 5.7199 26.2703 5.63015 26.0645C5.5404 25.8586 5.49237 25.6372 5.4888 25.4129C5.48524 25.1886 5.5262 24.9658 5.60936 24.7573C5.69252 24.5487 5.81624 24.3584 5.97345 24.1974L10 20.0701ZM2.77006 13.8425C3.05172 14.0278 3.3821 14.1267 3.71996 14.1267C3.95048 14.1269 4.17868 14.0811 4.39095 13.9918C4.60322 13.9026 4.79519 13.7717 4.95541 13.6071L9.32796 9.12545C9.64052 8.79916 9.8107 8.36349 9.80146 7.91324C9.79222 7.46298 9.60432 7.03456 9.27863 6.72118C8.95294 6.40781 8.51582 6.23482 8.06236 6.23987C7.6089 6.24492 7.17579 6.42759 6.85726 6.74814L2.48471 11.23C2.24961 11.471 2.09118 11.7754 2.02919 12.1052C1.96721 12.4351 2.00442 12.7757 2.13617 13.0847C2.26793 13.3936 2.48839 13.6572 2.77006 13.8425ZM5.6154 21.1286C5.70076 20.9193 5.74348 20.6952 5.74108 20.4694C5.73629 20.0195 5.55296 19.5896 5.2309 19.2732C4.90884 18.9567 4.47407 18.7792 4.021 18.7792C3.56793 18.7792 3.13315 18.9567 2.81109 19.2732C2.48904 19.5896 2.30571 20.0195 2.30092 20.4694C2.29851 20.6952 2.34123 20.9193 2.4266 21.1286C2.51196 21.338 2.63828 21.5284 2.79824 21.689C2.9582 21.8495 3.14864 21.977 3.35852 22.064C3.5684 22.1509 3.79357 22.1957 4.021 22.1957C4.24842 22.1957 4.47359 22.1509 4.68348 22.064C4.89336 21.977 5.08379 21.8495 5.24375 21.689C5.40372 21.5284 5.53003 21.338 5.6154 21.1286ZM13.7801 4.36211C13.8665 4.15488 13.911 3.93277 13.911 3.70846C13.911 3.37058 13.8102 3.04028 13.6212 2.75933C13.4322 2.47837 13.1635 2.25939 12.8492 2.13007C12.5349 2.00075 12.189 1.96691 11.8553 2.03282C11.5216 2.09872 11.2151 2.26142 10.9745 2.50034C10.7339 2.73926 10.5701 3.04366 10.5037 3.37505C10.4373 3.70644 10.4714 4.04993 10.6016 4.36208C10.7318 4.67424 10.9524 4.94103 11.2353 5.12872C11.5182 5.31641 11.8508 5.41658 12.191 5.41654C12.4169 5.41654 12.6405 5.37236 12.8492 5.28652C13.0579 5.20068 13.2475 5.07486 13.4072 4.91625C13.5669 4.75764 13.6936 4.56935 13.7801 4.36211Z" fill="#007DF6"/>
<path d="M15.5166 26.7943V17.1595H12V15.1978H21.4179V17.1595H17.9095V26.7943H15.5166Z" fill="#1E1E1E"/>
<path d="M22.3638 23.0211L24.692 22.7996C24.8321 23.5643 25.1151 24.1259 25.5408 24.4845C25.972 24.8431 26.5513 25.0224 27.2789 25.0224C28.0496 25.0224 28.6289 24.8642 29.017 24.5478C29.4104 24.2261 29.6071 23.8517 29.6071 23.4245C29.6071 23.1503 29.5236 22.9183 29.3565 22.7284C29.1948 22.5333 28.9092 22.3645 28.4996 22.2221C28.2193 22.1272 27.5807 21.9585 26.5837 21.7159C25.301 21.4047 24.401 21.0224 23.8836 20.5689C23.156 19.9308 22.7922 19.1529 22.7922 18.2353C22.7922 17.6447 22.962 17.0936 23.3015 16.5821C23.6465 16.0653 24.1396 15.6724 24.7809 15.4034C25.4276 15.1345 26.2064 15 27.1172 15C28.6047 15 29.723 15.3191 30.4721 15.9572C31.2266 16.5953 31.6227 17.4469 31.6605 18.5122L29.2676 18.615C29.1652 18.0191 28.9442 17.592 28.6047 17.3336C28.2705 17.0699 27.7666 16.938 27.093 16.938C26.3977 16.938 25.8534 17.0778 25.46 17.3573C25.2067 17.5366 25.08 17.7765 25.08 18.0771C25.08 18.3514 25.1986 18.586 25.4357 18.7811C25.7375 19.029 26.4705 19.2874 27.6346 19.5564C28.7987 19.8253 29.6583 20.1048 30.2134 20.3949C30.7739 20.6796 31.2105 21.0725 31.523 21.5735C31.841 22.0692 32 22.6836 32 23.4166C32 24.0811 31.8114 24.7034 31.4341 25.2835C31.0569 25.8635 30.5233 26.296 29.8335 26.5808C29.1436 26.8602 28.284 27 27.2546 27C25.7564 27 24.6058 26.6625 23.8027 25.9875C22.9997 25.3072 22.5201 24.3184 22.3638 23.0211Z" fill="#1E1E1E"/>
</svg>
